X:1
T:Caledonia
C:Dougie MacLean
B:Dougie MacLean: Songs (Dunkeld Records, 1994)
M:3/4
L:1/8
Q:1/4=90
K:G
"G"GG G3 G | "D7sus4"DA A2 z A | "G"Bc d2 cB | \
w:I don't know if | you can see the | cha-nges that have come |
"C9"cB G2 GG |
w:ov-er me. In these |
"G"GG G3 G | "D7sus4"AA A2 z A/2A/2 | "G"B2 c2 dc- | "C9"c4 z2 |
w:last few days I've | been a-fraid that I | might drift a-way. |
"Cmaj7/9"z3 D EF | "G"GG G2 ED | "D7sus4"AA A2 z G | \
w:So I've been | tell-ing old sto-ries, | sing-ing songs that |
"G"Bc d2 cB |
w:make me think a-bout |
"C9"cB AG- G D | "G"GG G2 D2 | "D7sus4"AA A2 z A | \
w:where I came from_ and | that's the rea-son | why I seem so |
"G"Bc dc- cB | "C9"c4 z2 ||
w:far a-wa-y_ to- | day |
P:Chorus
"Cmaj7/9"z4 Bc | "G"dd dc cB | "D"BA-A2 GA | \
w:Oh and | let me tell you that I | love you_ and I |
"G"BB BB AG | "C"E4 z2 |
w:think a-bout you all the | time |
"C"GG G2 GE | "G"ED DB cB | "D"B4 A2 | "G"G4 z G |
w:Cal-e-do- nia you're | call-ing me and now I'm | go-ing | home For |
"G"dd dd dB | "D"BA- A>G GA | \
w:if I should be-come a | stra-nger you know that |
"G"BB BB AG | "C"E4 z2 |
w:it would make me more than | sad |
"C"EG GG-GB | "D"BA AG B{A}G | "G"G4 z2 | "D"z6 |]
